Setup/v9/Assets/Themes/Kobe - Light/LockZoom.svg

<svg width="20" height="20" viewBox="0 0 20 20" fill="none" xmlns="http://www.w3.org/2000/svg">
<g clip-path="url(#clip0_806_860)">
<rect x="1" y="1" width="18" height="18" rx="2" stroke="black" stroke-linejoin="round"/>
<rect x="3.5" y="3.5" width="13" height="13" rx="1.5" fill="black" fill-opacity="0.1"/>
<path d="M7 4H5C4.44772 4 4 4.44772 4 5V7" stroke="black" stroke-linecap="round" stroke-linejoin="round"/>
<path fill-rule="evenodd" clip-rule="evenodd" d="M11.4735 8.64729C11.1977 9.07191 10.989 9.68519 10.9098 10.5H14.5902C14.511 9.68519 14.3023 9.07191 14.0265 8.64729C13.6784 8.11134 13.2268 7.875 12.75 7.875C12.2732 7.875 11.8216 8.11134 11.4735 8.64729ZM10.8445 8.23875C10.4783 8.80261 10.2388 9.56285 10.1566 10.5H10C9.44772 10.5 9 10.9477 9 11.5V15.5C9 16.0523 9.44772 16.5 10 16.5H15.5C16.0523 16.5 16.5 16.0523 16.5 15.5V11.5C16.5 10.9477 16.0523 10.5 15.5 10.5H15.3434C15.2612 9.56285 15.0217 8.80261 14.6555 8.23875C14.1893 7.52102 13.5158 7.125 12.75 7.125C11.9842 7.125 11.3107 7.52102 10.8445 8.23875ZM12.75 14.25C13.1642 14.25 13.5 13.7463 13.5 13.125C13.5 12.5037 13.1642 12 12.75 12C12.3358 12 12 12.5037 12 13.125C12 13.7463 12.3358 14.25 12.75 14.25Z" fill="black"/>
</g>
<defs>
<clipPath id="clip0_806_860">
<rect width="20" height="20" fill="white"/>
</clipPath>
</defs>
</svg>

<svg xmlns="http://www.w3.org/2000/svg" width="20" height="20" fill="none"><g><rect width="18" height="18" x="1" y="1" stroke="#000" stroke-linejoin="round" rx="2"/><rect width="13" height="13" x="3.5" y="3.5" fill="#000" fill-opacity=".1" rx="1.5"/><path stroke="#000" stroke-linecap="round" stroke-linejoin="round" d="M7 4H5a1 1 0 0 0-1 1v2"/><path fill="#000" fill-rule="evenodd" d="M11.473 8.647c-.275.425-.484 1.038-.563 1.853h3.68c-.079-.815-.288-1.428-.563-1.853-.349-.536-.8-.772-1.277-.772-.477 0-.928.236-1.277.772Zm-.629-.408c-.366.564-.605 1.324-.687 2.261H10a1 1 0 0 0-1 1v4a1 1 0 0 0 1 1h5.5a1 1 0 0 0 1-1v-4a1 1 0 0 0-1-1h-.157c-.082-.937-.321-1.697-.688-2.261-.466-.718-1.14-1.114-1.905-1.114-.766 0-1.44.396-1.905 1.114Zm1.906 6.011c.414 0 .75-.504.75-1.125S13.164 12 12.75 12s-.75.504-.75 1.125.336 1.125.75 1.125Z" clip-rule="evenodd"/></g></svg>
